X:1
%
T:Gae to the ky wi me johnnie
M:9/8
L:1/8
R:Air
B:Dow - Ancient Scots Music (c. 1775, p. 42)
Z:AK/Fiddler's Companion
K:F
f|cAA A2G FDD|cAA A2c d2f|cAA TA2G FAc|TA>GF GAc ~d2:||
c|Acd Tf>gf edc|Acd f>ge f2c|Acd f>gf edc|dcA GAc Td2c|
Acd f>gf edc|Acd fge f2c|Acd Tf>gf ecf|dcA GAc d2||

